packages/symbols/svgs/outline/smile-rotate-right-outline.svg

<svg width="24" height="24" viewBox="0 0 24 24" fill="none" xmlns="http://www.w3.org/2000/svg">
<path fill-rule="evenodd" clip-rule="evenodd" d="M7.5 12C8.32843 12 9 11.3284 9 10.5C9 9.67157 8.32843 9 7.5 9C6.67157 9 6 9.67157 6 10.5C6 11.3284 6.67157 12 7.5 12ZM16.5 12C17.3284 12 18 11.3284 18 10.5C18 9.67157 17.3284 9 16.5 9C15.6716 9 15 9.67157 15 10.5C15 11.3284 15.6716 12 16.5 12ZM8 15C7.44772 15 7 15.4477 7 16C7 16.5523 7.44772 17 8 17H16C16.5523 17 17 16.5523 17 16C17 15.4477 16.5523 15 16 15H8Z" fill="black"/>
<path fill-rule="evenodd" clip-rule="evenodd" d="M21.8344 0.609071C22.3817 0.683283 22.7652 1.1871 22.691 1.73437L21.8909 7.63437C21.8168 8.18078 21.3144 8.5641 20.7678 8.49122L14.7679 7.69123C14.2204 7.61824 13.8358 7.11528 13.9088 6.56784C13.9818 6.0204 14.4848 5.63578 15.0322 5.70877L18.9043 6.22505C17.2761 4.24175 14.7844 3 12 3C7.05228 3 3 7.05228 3 12C3 12.5523 2.55228 13 2 13C1.44772 13 1 12.5523 1 12C1 5.94771 5.94772 0.999996 12 0.999996C15.2879 0.999996 18.2617 2.42542 20.2655 4.73706L20.7091 1.46563C20.7833 0.918355 21.2871 0.53486 21.8344 0.609071ZM22.0001 11C22.5524 11 23.0001 11.4477 23.0001 12C23.0001 13.1462 22.8218 14.2537 22.4926 15.2954C22.3262 15.822 21.7643 16.1139 21.2377 15.9475C20.7111 15.7811 20.4191 15.2192 20.5856 14.6926C20.8544 13.8422 21.0001 12.9378 21.0001 12C21.0001 11.4477 21.4478 11 22.0001 11ZM2.66354 15.6003C3.16042 15.3592 3.75867 15.5666 3.99977 16.0634C4.38232 16.8518 4.87978 17.5709 5.47017 18.2016C5.84758 18.6049 5.82666 19.2377 5.42344 19.6151C5.02022 19.9925 4.38741 19.9716 4.01 19.5683C3.28439 18.7931 2.67186 17.9082 2.20041 16.9365C1.95931 16.4397 2.16666 15.8414 2.66354 15.6003ZM19.834 18.2757C20.2285 18.6623 20.2349 19.2954 19.8484 19.6899C18.9926 20.5633 17.9914 21.2964 16.886 21.8486C16.3919 22.0954 15.7913 21.8949 15.5445 21.4008C15.2977 20.9068 15.4982 20.3062 15.9923 20.0594C16.8968 19.6076 17.7177 19.0067 18.4199 18.2901C18.8064 17.8956 19.4395 17.8892 19.834 18.2757ZM7.6095 21.0537C7.79853 20.5348 8.37244 20.2674 8.89137 20.4564C9.79181 20.7844 10.7614 20.9729 11.7742 20.9973C12.3263 21.0106 12.7631 21.4689 12.7498 22.021C12.7365 22.5732 12.2782 23.01 11.726 22.9967C10.4948 22.9671 9.31038 22.7376 8.20683 22.3356C7.6879 22.1466 7.42046 21.5726 7.6095 21.0537Z" fill="black"/>
</svg>

<svg width="24" height="24" viewBox="0 0 24 24" xmlns="http://www.w3.org/2000/svg"><path fill-rule="evenodd" clip-rule="evenodd" d="M7.5 12a1.5 1.5 0 1 0 0-3 1.5 1.5 0 0 0 0 3Zm9 0a1.5 1.5 0 1 0 0-3 1.5 1.5 0 0 0 0 3ZM8 15a1 1 0 1 0 0 2h8a1 1 0 1 0 0-2H8Z"/><path fill-rule="evenodd" clip-rule="evenodd" d="M21.834.61a1 1 0 0 1 .857 1.124l-.8 5.9a1 1 0 0 1-1.123.857l-6-.8a1 1 0 1 1 .264-1.982l3.872.516C17.276 4.242 14.784 3 12 3c-4.948 0-9 4.052-9 9a1 1 0 1 1-2 0C1 5.948 5.948 1 12 1c3.288 0 6.262 1.425 8.265 3.737l.444-3.271a1 1 0 0 1 1.125-.857ZM22 11a1 1 0 0 1 1 1c0 1.146-.178 2.254-.507 3.295a1 1 0 0 1-1.907-.602A8.92 8.92 0 0 0 21 12a1 1 0 0 1 1-1ZM2.664 15.6A1 1 0 0 1 4 16.063c.382.789.88 1.508 1.47 2.139a1 1 0 0 1-1.46 1.366 10.66 10.66 0 0 1-1.81-2.632 1 1 0 0 1 .464-1.336Zm17.17 2.676a1 1 0 0 1 .014 1.414 11.091 11.091 0 0 1-2.962 2.159 1 1 0 0 1-.894-1.79 9.091 9.091 0 0 0 2.428-1.769 1 1 0 0 1 1.414-.014ZM7.61 21.054a1 1 0 0 1 1.281-.598c.9.328 1.87.517 2.883.541a1 1 0 1 1-.048 2 11.042 11.042 0 0 1-3.52-.661 1 1 0 0 1-.596-1.282Z"/></svg>
